packages/appstore/src/assets/svgs/trading-platform/ic-appstore-deriv-logo.svg

<svg width="128" height="96" viewBox="0 0 89 16" fill="none" xmlns="http://www.w3.org/2000/svg"><g clip-path="url(#clip0_24086_186543)"><path d="M3.60728 0.666657L9.22217 7.99999L0.222168 15.3333H9.31852C10.6077 15.3336 11.8592 14.8935 12.8682 14.091C13.8772 13.2886 14.5844 12.1679 14.8744 10.9118L15.6275 7.64932C15.8204 6.81363 15.8223 5.94517 15.6329 5.10866C15.4436 4.27215 15.0679 3.48915 14.5339 2.81799C14 2.14682 13.3214 1.60481 12.5488 1.23232C11.7763 0.859835 10.9296 0.666478 10.0719 0.666657H3.60728Z" fill="url(#paint0_linear_24086_186543)"/><path d="M9.22217 8L5.22217 15.3333H0.222168L9.22217 8Z" fill="#CC2E3D"/><path fill-rule="evenodd" clip-rule="evenodd" d="M22.5872 0.666656H28.3101C32.9218 0.666656 35.5498 3.83049 34.8218 7.9572L34.8142 7.99899C34.0861 12.1266 30.3344 15.3324 25.7227 15.3324H20L22.5872 0.666656ZM26.2364 12.4209C27.4854 12.4412 28.6996 12.009 29.6547 11.2041C30.6097 10.3992 31.2411 9.27606 31.432 8.04211L31.4394 8.0001C31.8977 5.40107 30.4373 3.57843 27.7961 3.57843H25.3017L23.742 12.4202L26.2364 12.4209Z" fill="white"/><path d="M39.0718 0.666656H50.2448L49.7385 3.53709H41.7728L41.2478 6.51243H46.3212L45.8141 9.38286H40.7415L40.1982 12.4629H48.1638L47.6574 15.3333H36.4845L39.0718 0.666656Z" fill="white"/><path d="M64.606 5.54865C64.1884 7.91697 62.6473 9.40375 60.6597 10.0952L63.3202 15.3327H59.5469L56.0346 7.78983H58.467C60.0388 7.78983 61.0884 6.95164 61.3064 5.71558L61.3139 5.67357C61.5579 4.29081 60.7191 3.57843 59.1471 3.57843H55.9397L53.8662 15.3333H50.638L53.2253 0.666656H59.9334C61.7989 0.666656 63.153 1.19055 63.9464 2.15433C64.6205 2.9714 64.8582 4.12389 64.6136 5.50664L64.606 5.54865Z" fill="white"/><path d="M68.44 0.666656H71.6683L69.0809 15.3333H65.8527L68.44 0.666656Z" fill="white"/><path d="M77.8169 0.666656H74.2786L77.5807 15.3333H80.4114L88.8889 0.666656H85.4338L79.8158 10.923L77.8169 0.666656Z" fill="white"/></g><defs><linearGradient id="paint0_linear_24086_186543" x1="10.0479" y1="-1.86045" x2="7.12661" y2="16.5669" gradientUnits="userSpaceOnUse"><stop stop-color="#FF6444"/><stop offset="1" stop-color="#FF444F"/></linearGradient><clipPath id="clip0_24086_186543"><rect width="88.8889" height="16" fill="white"/></clipPath></defs></svg>

<svg width="128" height="96" viewBox="0 0 89 16" fill="none" xmlns="http://www.w3.org/2000/svg"><g clip-path="url(#a)"><path d="M3.607.667 9.222 8l-9 7.333H9.32a5.704 5.704 0 0 0 5.555-4.421l.753-3.263A5.7 5.7 0 0 0 10.072.667H3.607Z" fill="url(#b)"/><path d="m9.222 8-4 7.333h-5l9-7.333Z" fill="#CC2E3D"/><path fill-rule="evenodd" clip-rule="evenodd" d="M22.587.667h5.723c4.612 0 7.24 3.163 6.512 7.29L34.814 8c-.728 4.128-4.48 7.333-9.091 7.333H20L22.587.667Zm3.65 11.754a5.174 5.174 0 0 0 5.195-4.379L31.439 8c.459-2.599-1.002-4.422-3.643-4.422h-2.494l-1.56 8.842h2.494Z" fill="#fff"/><path d="M39.072.667h11.173l-.506 2.87h-7.966l-.525 2.975h5.073l-.507 2.87h-5.072l-.544 3.08h7.966l-.507 2.871H36.485L39.072.667ZM64.606 5.549c-.418 2.368-1.959 3.855-3.946 4.546l2.66 5.238h-3.773L56.035 7.79h2.432c1.572 0 2.621-.838 2.84-2.074l.007-.042c.244-1.383-.595-2.096-2.167-2.096H55.94l-2.074 11.755h-3.228L53.225.667h6.708c1.866 0 3.22.524 4.013 1.487.675.817.912 1.97.668 3.353l-.008.042ZM68.44.667h3.228l-2.587 14.666h-3.228L68.44.667ZM77.817.667h-3.538l3.302 14.666h2.83L88.89.667h-3.455l-5.618 10.256-2-10.256Z" fill="#fff"/></g><defs><linearGradient id="b" x1="10.048" y1="-1.86" x2="7.127" y2="16.567" gradientUnits="userSpaceOnUse"><stop stop-color="#FF6444"/><stop offset="1" stop-color="#FF444F"/></linearGradient><clipPath id="a"><path fill="#fff" d="M0 0h88.889v16H0z"/></clipPath></defs></svg>
